images/3234812.svg

<?xml version="1.0" encoding="UTF-8"?>
<svg xmlns="http://www.w3.org/2000/svg" xmlns:xlink="http://www.w3.org/1999/xlink" width="300pt" height="300pt" viewBox="0 0 300 300" version="1.1">
<defs>
<g>
<symbol overflow="visible" id="glyph0-0">
<path style="stroke:none;" d="M 0.75 2.65625 L 0.75 -10.578125 L 8.25 -10.578125 L 8.25 2.65625 Z M 1.59375 1.8125 L 7.40625 1.8125 L 7.40625 -9.734375 L 1.59375 -9.734375 Z M 1.59375 1.8125 "/>
</symbol>
<symbol overflow="visible" id="glyph0-1">
<path style="stroke:none;" d="M 1.46875 -10.9375 L 3.46875 -10.9375 L 8.3125 -1.78125 L 8.3125 -10.9375 L 9.75 -10.9375 L 9.75 0 L 7.75 0 L 2.90625 -9.140625 L 2.90625 0 L 1.46875 0 Z M 1.46875 -10.9375 "/>
</symbol>
<symbol overflow="visible" id="glyph0-2">
<path style="stroke:none;" d="M 1.46875 -10.9375 L 2.953125 -10.9375 L 2.953125 -6.453125 L 8.328125 -6.453125 L 8.328125 -10.9375 L 9.8125 -10.9375 L 9.8125 0 L 8.328125 0 L 8.328125 -5.203125 L 2.953125 -5.203125 L 2.953125 0 L 1.46875 0 Z M 1.46875 -10.9375 "/>
</symbol>
</g>
</defs>
<g id="surface37469">
<rect x="0" y="0" width="300" height="300" style="fill:rgb(100%,100%,100%);fill-opacity:1;stroke:none;"/>
<path style="fill:none;stroke-width:1.2;stroke-linecap:butt;stroke-linejoin:miter;stroke:rgb(0%,0%,0%);stroke-opacity:1;stroke-miterlimit:10;" d="M 35.25 199.003906 L 45.699219 165.453125 "/>
<path style="fill:none;stroke-width:1.2;stroke-linecap:butt;stroke-linejoin:miter;stroke:rgb(0%,0%,0%);stroke-opacity:1;stroke-miterlimit:10;" d="M 44.1875 198.105469 L 52.546875 171.265625 "/>
<path style="fill:none;stroke-width:1.2;stroke-linecap:butt;stroke-linejoin:miter;stroke:rgb(0%,0%,0%);stroke-opacity:1;stroke-miterlimit:10;" d="M 59.082031 224.824219 L 35.25 199.003906 "/>
<path style="fill:none;stroke-width:1.2;stroke-linecap:butt;stroke-linejoin:miter;stroke:rgb(0%,0%,0%);stroke-opacity:1;stroke-miterlimit:10;" d="M 45.699219 165.453125 L 79.976562 157.726562 "/>
<path style="fill:none;stroke-width:1.2;stroke-linecap:butt;stroke-linejoin:miter;stroke:rgb(0%,0%,0%);stroke-opacity:1;stroke-miterlimit:10;" d="M 79.976562 157.726562 L 103.804688 183.550781 "/>
<path style="fill:none;stroke-width:1.2;stroke-linecap:butt;stroke-linejoin:miter;stroke:rgb(0%,0%,0%);stroke-opacity:1;stroke-miterlimit:10;" d="M 76.28125 165.917969 L 95.347656 186.574219 "/>
<path style="fill:none;stroke-width:1.2;stroke-linecap:butt;stroke-linejoin:miter;stroke:rgb(0%,0%,0%);stroke-opacity:1;stroke-miterlimit:10;" d="M 103.804688 183.550781 L 93.359375 217.097656 "/>
<path style="fill:none;stroke-width:1.2;stroke-linecap:butt;stroke-linejoin:miter;stroke:rgb(0%,0%,0%);stroke-opacity:1;stroke-miterlimit:10;" d="M 103.804688 183.550781 L 138.085938 175.824219 "/>
<path style="fill:none;stroke-width:1.2;stroke-linecap:butt;stroke-linejoin:miter;stroke:rgb(0%,0%,0%);stroke-opacity:1;stroke-miterlimit:10;" d="M 93.359375 217.097656 L 59.082031 224.824219 "/>
<path style="fill:none;stroke-width:1.2;stroke-linecap:butt;stroke-linejoin:miter;stroke:rgb(0%,0%,0%);stroke-opacity:1;stroke-miterlimit:10;" d="M 88.113281 209.804688 L 60.691406 215.988281 "/>
<path style="fill:none;stroke-width:1.2;stroke-linecap:butt;stroke-linejoin:miter;stroke:rgb(0%,0%,0%);stroke-opacity:1;stroke-miterlimit:10;" d="M 138.085938 175.824219 L 150 188.734375 "/>
<path style="fill:none;stroke-width:1.2;stroke-linecap:butt;stroke-linejoin:miter;stroke:rgb(0%,0%,100%);stroke-opacity:1;stroke-miterlimit:10;" d="M 150 188.734375 L 161.914062 201.644531 "/>
<path style="fill:none;stroke-width:1.2;stroke-linecap:butt;stroke-linejoin:miter;stroke:rgb(0%,0%,100%);stroke-opacity:1;stroke-miterlimit:10;" d="M 161.914062 201.644531 L 179.054688 197.78125 "/>
<path style="fill:none;stroke-width:1.2;stroke-linecap:butt;stroke-linejoin:miter;stroke:rgb(0%,0%,0%);stroke-opacity:1;stroke-miterlimit:10;" d="M 179.054688 197.78125 L 196.195312 193.917969 "/>
<path style=" stroke:none;fill-rule:nonzero;fill:rgb(100%,100%,100%);fill-opacity:1;" d="M 150.914062 192.644531 L 173.914062 192.644531 L 173.914062 210.644531 L 150.914062 210.644531 Z M 150.914062 192.644531 "/>
<g style="fill:rgb(0%,0%,100%);fill-opacity:1;">
  <use xlink:href="#glyph0-1" x="150.914062" y="206.258789"/>
  <use xlink:href="#glyph0-2" x="161.889648" y="206.258789"/>
</g>
<path style="fill:none;stroke-width:1.2;stroke-linecap:butt;stroke-linejoin:miter;stroke:rgb(0%,0%,0%);stroke-opacity:1;stroke-miterlimit:10;" d="M 196.195312 193.917969 L 208.109375 206.828125 "/>
<path style="fill:none;stroke-width:1.2;stroke-linecap:butt;stroke-linejoin:miter;stroke:rgb(0%,0%,100%);stroke-opacity:1;stroke-miterlimit:10;" d="M 208.109375 206.828125 L 220.023438 219.742188 "/>
<path style="fill:none;stroke-width:1.2;stroke-linecap:butt;stroke-linejoin:miter;stroke:rgb(0%,0%,0%);stroke-opacity:1;stroke-miterlimit:10;" d="M 204.652344 190.894531 L 214.183594 201.222656 "/>
<path style="fill:none;stroke-width:1.2;stroke-linecap:butt;stroke-linejoin:miter;stroke:rgb(0%,0%,100%);stroke-opacity:1;stroke-miterlimit:10;" d="M 214.183594 201.222656 L 223.71875 211.550781 "/>
<path style="fill:none;stroke-width:1.2;stroke-linecap:butt;stroke-linejoin:miter;stroke:rgb(0%,0%,0%);stroke-opacity:1;stroke-miterlimit:10;" d="M 206.640625 160.367188 L 196.195312 193.917969 "/>
<path style="fill:none;stroke-width:1.2;stroke-linecap:butt;stroke-linejoin:miter;stroke:rgb(0%,0%,100%);stroke-opacity:1;stroke-miterlimit:10;" d="M 220.023438 219.742188 L 237.164062 215.878906 "/>
<path style="fill:none;stroke-width:1.2;stroke-linecap:butt;stroke-linejoin:miter;stroke:rgb(0%,0%,0%);stroke-opacity:1;stroke-miterlimit:10;" d="M 237.164062 215.878906 L 254.300781 212.015625 "/>
<path style=" stroke:none;fill-rule:nonzero;fill:rgb(100%,100%,100%);fill-opacity:1;" d="M 215.023438 210.742188 L 226.023438 210.742188 L 226.023438 228.742188 L 215.023438 228.742188 Z M 215.023438 210.742188 "/>
<g style="fill:rgb(0%,0%,100%);fill-opacity:1;">
  <use xlink:href="#glyph0-1" x="215.023438" y="224.356445"/>
</g>
<path style="fill:none;stroke-width:1.2;stroke-linecap:butt;stroke-linejoin:miter;stroke:rgb(0%,0%,0%);stroke-opacity:1;stroke-miterlimit:10;" d="M 254.300781 212.015625 L 259.527344 195.238281 "/>
<path style="fill:none;stroke-width:1.2;stroke-linecap:butt;stroke-linejoin:miter;stroke:rgb(0%,0%,100%);stroke-opacity:1;stroke-miterlimit:10;" d="M 259.527344 195.238281 L 264.75 178.464844 "/>
<path style="fill:none;stroke-width:1.2;stroke-linecap:butt;stroke-linejoin:miter;stroke:rgb(0%,0%,0%);stroke-opacity:1;stroke-miterlimit:10;" d="M 247.453125 206.199219 L 251.632812 192.78125 "/>
<path style="fill:none;stroke-width:1.2;stroke-linecap:butt;stroke-linejoin:miter;stroke:rgb(0%,0%,100%);stroke-opacity:1;stroke-miterlimit:10;" d="M 251.632812 192.78125 L 255.8125 179.359375 "/>
<path style="fill:none;stroke-width:1.2;stroke-linecap:butt;stroke-linejoin:miter;stroke:rgb(0%,0%,100%);stroke-opacity:1;stroke-miterlimit:10;" d="M 264.75 178.464844 L 252.835938 165.554688 "/>
<path style="fill:none;stroke-width:1.2;stroke-linecap:butt;stroke-linejoin:miter;stroke:rgb(0%,0%,0%);stroke-opacity:1;stroke-miterlimit:10;" d="M 252.835938 165.554688 L 240.917969 152.640625 "/>
<path style=" stroke:none;fill-rule:nonzero;fill:rgb(100%,100%,100%);fill-opacity:1;" d="M 259.75 169.464844 L 270.75 169.464844 L 270.75 187.464844 L 259.75 187.464844 Z M 259.75 169.464844 "/>
<g style="fill:rgb(0%,0%,100%);fill-opacity:1;">
  <use xlink:href="#glyph0-1" x="259.75" y="183.079102"/>
</g>
<path style="fill:none;stroke-width:1.2;stroke-linecap:butt;stroke-linejoin:miter;stroke:rgb(0%,0%,0%);stroke-opacity:1;stroke-miterlimit:10;" d="M 240.917969 152.640625 L 206.640625 160.367188 "/>
<path style="fill:none;stroke-width:1.2;stroke-linecap:butt;stroke-linejoin:miter;stroke:rgb(0%,0%,0%);stroke-opacity:1;stroke-miterlimit:10;" d="M 239.308594 161.480469 L 211.886719 167.660156 "/>
<path style="fill:none;stroke-width:1.2;stroke-linecap:butt;stroke-linejoin:miter;stroke:rgb(0%,0%,0%);stroke-opacity:1;stroke-miterlimit:10;" d="M 206.640625 160.367188 L 182.808594 134.546875 "/>
<path style="fill:none;stroke-width:1.2;stroke-linecap:butt;stroke-linejoin:miter;stroke:rgb(0%,0%,0%);stroke-opacity:1;stroke-miterlimit:10;" d="M 182.808594 134.546875 L 193.257812 100.996094 "/>
<path style="fill:none;stroke-width:1.2;stroke-linecap:butt;stroke-linejoin:miter;stroke:rgb(0%,0%,0%);stroke-opacity:1;stroke-miterlimit:10;" d="M 175.960938 128.734375 L 184.320312 101.894531 "/>
<path style="fill:none;stroke-width:1.2;stroke-linecap:butt;stroke-linejoin:miter;stroke:rgb(0%,0%,0%);stroke-opacity:1;stroke-miterlimit:10;" d="M 148.53125 142.273438 L 182.808594 134.546875 "/>
<path style="fill:none;stroke-width:1.2;stroke-linecap:butt;stroke-linejoin:miter;stroke:rgb(0%,0%,0%);stroke-opacity:1;stroke-miterlimit:10;" d="M 193.257812 100.996094 L 169.425781 75.175781 "/>
<path style="fill:none;stroke-width:1.2;stroke-linecap:butt;stroke-linejoin:miter;stroke:rgb(0%,0%,0%);stroke-opacity:1;stroke-miterlimit:10;" d="M 169.425781 75.175781 L 135.148438 82.902344 "/>
<path style="fill:none;stroke-width:1.2;stroke-linecap:butt;stroke-linejoin:miter;stroke:rgb(0%,0%,0%);stroke-opacity:1;stroke-miterlimit:10;" d="M 167.816406 84.011719 L 140.394531 90.195312 "/>
<path style="fill:none;stroke-width:1.2;stroke-linecap:butt;stroke-linejoin:miter;stroke:rgb(0%,0%,0%);stroke-opacity:1;stroke-miterlimit:10;" d="M 135.148438 82.902344 L 124.703125 116.449219 "/>
<path style="fill:none;stroke-width:1.2;stroke-linecap:butt;stroke-linejoin:miter;stroke:rgb(0%,0%,0%);stroke-opacity:1;stroke-miterlimit:10;" d="M 124.703125 116.449219 L 148.53125 142.273438 "/>
<path style="fill:none;stroke-width:1.2;stroke-linecap:butt;stroke-linejoin:miter;stroke:rgb(0%,0%,0%);stroke-opacity:1;stroke-miterlimit:10;" d="M 133.160156 113.425781 L 152.226562 134.082031 "/>
<path style="fill:none;stroke-width:1.2;stroke-linecap:butt;stroke-linejoin:miter;stroke:rgb(0%,0%,0%);stroke-opacity:1;stroke-miterlimit:10;" d="M 124.703125 116.449219 L 90.421875 124.175781 "/>
<path style="fill:none;stroke-width:1.2;stroke-linecap:butt;stroke-linejoin:miter;stroke:rgb(0%,0%,0%);stroke-opacity:1;stroke-miterlimit:10;" d="M 90.421875 124.175781 L 73.285156 128.039062 "/>
<path style="fill:none;stroke-width:1.2;stroke-linecap:butt;stroke-linejoin:miter;stroke:rgb(0%,0%,100%);stroke-opacity:1;stroke-miterlimit:10;" d="M 73.285156 128.039062 L 56.144531 131.90625 "/>
<path style="fill:none;stroke-width:1.2;stroke-linecap:butt;stroke-linejoin:miter;stroke:rgb(0%,0%,0%);stroke-opacity:1;stroke-miterlimit:10;" d="M 85.175781 116.886719 L 71.464844 119.976562 "/>
<path style="fill:none;stroke-width:1.2;stroke-linecap:butt;stroke-linejoin:miter;stroke:rgb(0%,0%,100%);stroke-opacity:1;stroke-miterlimit:10;" d="M 71.464844 119.976562 L 57.753906 123.066406 "/>
<path style="fill:none;stroke-width:1.2;stroke-linecap:butt;stroke-linejoin:miter;stroke:rgb(0%,0%,0%);stroke-opacity:1;stroke-miterlimit:10;" d="M 88.8125 133.015625 L 75.101562 136.105469 "/>
<path style="fill:none;stroke-width:1.2;stroke-linecap:butt;stroke-linejoin:miter;stroke:rgb(0%,0%,100%);stroke-opacity:1;stroke-miterlimit:10;" d="M 75.101562 136.105469 L 61.390625 139.195312 "/>
<path style=" stroke:none;fill-rule:nonzero;fill:rgb(100%,100%,100%);fill-opacity:1;" d="M 45.144531 122.90625 L 56.144531 122.90625 L 56.144531 140.90625 L 45.144531 140.90625 Z M 45.144531 122.90625 "/>
<g style="fill:rgb(0%,0%,100%);fill-opacity:1;">
  <use xlink:href="#glyph0-1" x="45.144531" y="136.520508"/>
</g>
</g>
</svg>

<svg xmlns="http://www.w3.org/2000/svg" xmlns:xlink="http://www.w3.org/1999/xlink" width="300pt" height="300pt" viewBox="0 0 300 300"><defs><symbol overflow="visible"><path d="M.75 2.656v-13.234h7.5V2.656zm.844-.844h5.812V-9.733H1.594zm0 0"/></symbol><symbol overflow="visible" id="a"><path d="M1.47-10.938h2L8.31-1.78v-9.158H9.75V0h-2L2.906-9.14V0H1.47zm0 0"/></symbol><symbol overflow="visible" id="b"><path d="M1.47-10.938h1.483v4.485h5.375v-4.484h1.485V0H8.328v-5.203H2.953V0H1.47zm0 0"/></symbol></defs><g><path fill="#fff" d="M0 0h300v300H0z"/><path d="M35.25 199.004l10.45-33.55M44.188 198.105l8.36-26.84M59.082 224.824l-23.832-25.82M45.7 165.453l34.277-7.726M79.977 157.727l23.828 25.824M76.28 165.918l19.068 20.656M103.805 183.55L93.36 217.1M103.805 183.55l34.28-7.726M93.36 217.098l-34.278 7.726M88.113 209.805l-27.422 6.183M138.086 175.824L150 188.734" stroke-width="1.2" stroke="#000" stroke-miterlimit="10" fill="none"/><path d="M150 188.734l11.914 12.91M161.914 201.645l17.14-3.864" stroke-width="1.2" stroke="#00f" stroke-miterlimit="10" fill="none"/><path d="M179.055 197.78l17.14-3.862" stroke-width="1.2" stroke="#000" stroke-miterlimit="10" fill="none"/><path d="M150.914 192.645h23v18h-23zm0 0" fill="#fff"/><g fill="#00f"><use xlink:href="#a" x="150.914" y="206.259"/><use xlink:href="#b" x="161.89" y="206.259"/></g><path d="M196.195 193.918l11.914 12.91" stroke-width="1.2" stroke="#000" stroke-miterlimit="10" fill="none"/><path d="M208.11 206.828l11.913 12.914" stroke-width="1.2" stroke="#00f" stroke-miterlimit="10" fill="none"/><path d="M204.652 190.895l9.532 10.328" stroke-width="1.2" stroke="#000" stroke-miterlimit="10" fill="none"/><path d="M214.184 201.223l9.535 10.328" stroke-width="1.2" stroke="#00f" stroke-miterlimit="10" fill="none"/><path d="M206.64 160.367l-10.445 33.55" stroke-width="1.2" stroke="#000" stroke-miterlimit="10" fill="none"/><path d="M220.023 219.742l17.14-3.863" stroke-width="1.2" stroke="#00f" stroke-miterlimit="10" fill="none"/><path d="M237.164 215.88l17.137-3.864" stroke-width="1.2" stroke="#000" stroke-miterlimit="10" fill="none"/><path d="M215.023 210.742h11v18h-11zm0 0" fill="#fff"/><use xlink:href="#a" x="215.023" y="224.356" fill="#00f"/><path d="M254.3 212.016l5.227-16.778" stroke-width="1.2" stroke="#000" stroke-miterlimit="10" fill="none"/><path d="M259.527 195.238l5.223-16.773" stroke-width="1.2" stroke="#00f" stroke-miterlimit="10" fill="none"/><path d="M247.453 206.2l4.18-13.42" stroke-width="1.2" stroke="#000" stroke-miterlimit="10" fill="none"/><path d="M251.633 192.78l4.18-13.42M264.75 178.465l-11.914-12.91" stroke-width="1.2" stroke="#00f" stroke-miterlimit="10" fill="none"/><path d="M252.836 165.555l-11.918-12.914" stroke-width="1.2" stroke="#000" stroke-miterlimit="10" fill="none"/><path d="M259.75 169.465h11v18h-11zm0 0" fill="#fff"/><use xlink:href="#a" x="259.75" y="183.079" fill="#00f"/><path d="M240.918 152.64l-34.277 7.727M239.31 161.48l-27.423 6.18M206.64 160.367l-23.83-25.82M182.81 134.547l10.448-33.55M175.96 128.734l8.36-26.84M148.53 142.273l34.28-7.726M193.258 100.996l-23.832-25.82M169.426 75.176l-34.278 7.726M167.816 84.012l-27.42 6.183M135.148 82.902l-10.445 33.547M124.703 116.45l23.828 25.823M133.16 113.426l19.067 20.656M124.703 116.45l-34.28 7.726M90.422 124.176l-17.137 3.863" stroke-width="1.2" stroke="#000" stroke-miterlimit="10" fill="none"/><path d="M73.285 128.04l-17.14 3.866" stroke-width="1.2" stroke="#00f" stroke-miterlimit="10" fill="none"/><path d="M85.176 116.887l-13.71 3.09" stroke-width="1.2" stroke="#000" stroke-miterlimit="10" fill="none"/><path d="M71.465 119.977l-13.71 3.09" stroke-width="1.2" stroke="#00f" stroke-miterlimit="10" fill="none"/><path d="M88.813 133.016l-13.71 3.09" stroke-width="1.2" stroke="#000" stroke-miterlimit="10" fill="none"/><path d="M75.102 136.105l-13.71 3.09" stroke-width="1.2" stroke="#00f" stroke-miterlimit="10" fill="none"/><path d="M45.145 122.906h11v18h-11zm0 0" fill="#fff"/><use xlink:href="#a" x="45.145" y="136.521" fill="#00f"/></g></svg>
